X:1
T:I Was There When It Happened
T:I Was There When It Happened
T:Herbert J. Lacey
T:Herbert J. Lacey, 1920
T:Public Domain Courtesy of the Cyber Hymnal™
T:Public Domain Courtesy of the Cyber Hymnal™
C:Herbert J. Lacey
Z:Public Domain
Z:Courtesy of the Cyber Hymnal™
%%score ( 1 2 ) ( 3 4 )
L:1/8
Q:1/4=110
M:4/4
K:Bb
V:1 treble 
V:2 treble 
V:3 bass 
V:4 bass 
V:1
 [DF]2 | [DB][DB][DB][DB] [EG][DF][B,D][CE] | %2
w: 1.~You|ask me how I know that Je- sus|
w: 2.~You|ask me know I know that He re-|
w: 3.~And|now, as thru the world I go re-|
 [DF]2 [DF]4 [DF][DF][DB][DB][DB][DB][=EB][EG][EA][EB] | [_Ec]6 ([EF][EF]) | %4
w: saves me, How I know that all my sins are white as|snow; You *|
w: deemed me; And how I re- ceived the peace no gold can|buy; How *|
w: joic- ing, I am tell- ing what a Sav- ior dwells with-|in; How~~~I *|
 [DB][DB][DB][DB] [EG][DF][B,D][CE] | [DF]2 [DF]4 [DF]2 | [EG][EG][=Ec][EB] [FA][FA][_EG][EA] | %7
w: ask me how I know that He for-|gave me; Now|lis- ten, I must tell you how I|
w: from the guilt and pow’r of sin He|saved me, Made|me an heir to man- sions in the|
w: plunged in- to the cleans- ing, crim- son|fount- ain, And|Je- sus washed my soul from ev- ’ry|
 [DB]6 ||"^Refrain" [DF][DF] | [DB]2 [DB][Ec] [Fd][Ec][DB][FA] | [EG]2 [EG]2 [EG]3 [EG] | %11
w: know.||||
w: sky.||||
w: sin.||||
 [Ec][Ec][Ec][Fd] [Fe][Ec][EA][EF] | [DB]2 [DB]2 [DB]2 [DF][DF] | [Fd][Fd][Fd][Ec] [DB]2 [DA][DB] | %14
w: |||
w: |||
w: |||
 [Ec][EB][EB][EG] !fermata![GB]2 AG | F2 FG FD[FB][Gc] | [Fd]2 [Ec]2 [DB]2 |] %17
w: |||
w: |||
w: |||
V:2
 x2 | x8 | x16 | x8 | x8 | x8 | x8 | x6 || x2 | x8 | x8 | x8 | x8 | x8 | x6 AG | F2 FG FD x2 | %16
 x6 |] %17
V:3
 [B,,B,]2 | [B,,F,][B,,F,][B,,F,][B,,F,] [B,,B,][B,,B,][B,,F,][B,,F,] | %2
w: ~|~ ~ ~ ~ ~ ~ ~ ~|
 [B,,B,]2 [B,,B,]4 [B,,B,][B,,B,][B,,B,][B,,B,][B,,B,][B,,B,][C,G,][C,C][C,C][C,B,] | %3
w: ~ ~ ~ ~ ~ ~ ~ ~ ~ ~ ~ ~|
 [F,A,]6 ([F,A,][F,A,]) | [B,,F,][B,,F,][B,,F,][B,,F,] [B,,B,][B,,B,][B,,F,][B,,F,] | %5
w: ~ ~ *|~ ~ ~ ~ ~ ~ ~ ~|
 [B,,B,]2 [B,,B,]4 [B,,B,]2 | [E,B,][E,B,][C,C][C,C] [F,C][F,C][F,C][F,C] | [B,,B,]6 || %8
w: ~ ~ ~|~ ~ ~ ~ ~ ~ ~ ~|~|
 [B,,B,][B,,B,] | [B,,F,]2 [B,,F,][B,,F,] [B,,B,][B,,B,][B,,B,][D,B,] | %10
w: I was|there when it hap- pened, and I|
 [E,B,]2 [E,B,]2 [E,B,]3 [E,B,] | [F,A,][F,A,][F,A,][F,A,] [F,A,][F,A,][F,C][F,A,] | %12
w: ought to know; His|Spir- it burn- ing in me, set my|
 [B,,B,]2 [B,,G,]2 [B,,F,]2 [B,,B,][B,,B,] | [B,,B,][B,,B,][F,A,][F,A,] [B,,B,]2 [B,,B,][B,,B,] | %14
w: heart a- glow; So I|praise the Lord to- day, He has|
 [E,G,][E,G,][E,G,][E,B,] [E,E]2 A,G, | F,2 F,G, F,D,[D,B,][E,B,] | [F,B,]2 [F,A,]2 [B,,B,]2 |] %17
w: washed my sins a- way; I was|there when it hap- pened, and I|ought to know.|
V:4
 x2 | x8 | x16 | x8 | x8 | x8 | x8 | x6 || x2 | x8 | x8 | x8 | x8 | x8 | x6 A,G, | %15
 F,2 F,G, F,D, x2 | x6 |] %17

